X: 1
T: Julia's
M: 3/4
L: 1/8
R: waltz
K: Gmaj
D>C|:B,3C D>G|F4 D>E|=F2F>E F>G|D4D>C|
B,>D A,>D B,>D|A,3B, C/B,/A,|B,2 B,>A, B,>D|1G,4D>C:|2G,4G>A||
|:B3A G>F|D4 D>E|=F2F>E F>G|D4D>C|
B,>D A,>D B,>D|C3D E/D/C|B,2 B,>A, B,>D|1G,4G>A:|2G,4D>C||
